loleaflet/images/lc_insertion_mobile_wizard.svg

<svg viewBox="0 0 24 24" xmlns="http://www.w3.org/2000/svg"><g fill="#555" stroke-width="1.165137" transform="matrix(.85826837 0 0 .85826837 2.394341 1.401559)"><path d="m15.512612.6972654c-.3189 0-.64985.0486749-.96875.1835937l-3.111329 1.2871094a8.5630703 8.5630703 0 0 1 2.986329 6.4921875 8.5630703 8.5630703 0 0 1 -6.4511725 8.292969l2.2949225 5.539062c.380226.932169 1.287439 1.495547 2.24414 1.507813.3189 0 .638679-.06094.945313-.183594l9.027343-3.740234c1.251069-.515145 1.851085-1.950649 1.335938-3.189453l-6.082031-14.6816411c-.380227-.9199039-1.276269-1.4832817-2.220703-1.5078125zm-15.55468811 14.1582036-1.39648439 3.36914c-.5028808 1.251069.099087 2.686026 1.33789069 3.201172l1.64257811.685547v-6.064453a8.5630703 8.5630703 0 0 1 -1.58398441-1.191406zm4.04882811 2.160156v4.53125c0 1.349192 1.1039326 2.453125 2.453125 2.453125h1.7792969l-2.8125-6.796875a8.5630703 8.5630703 0 0 1 -1.4199219-.1875z"/><path d="m11.191907 10.018359h-4.6605472v4.660547h-2.3302735v-4.660547h-4.6605469v-2.3302732h4.6605469v-4.6605469h2.3302735v4.6605469h4.6605472z"/></g></svg>

<?xml version="1.0" encoding="UTF-8" standalone="no"?>
<svg
   xmlns:dc="http://purl.org/dc/elements/1.1/"
   xmlns:cc="http://creativecommons.org/ns#"
   xmlns:rdf="http://www.w3.org/1999/02/22-rdf-syntax-ns#"
   xmlns:svg="http://www.w3.org/2000/svg"
   xmlns="http://www.w3.org/2000/svg"
   xmlns:sodipodi="http://sodipodi.sourceforge.net/DTD/sodipodi-0.dtd"
   xmlns:inkscape="http://www.inkscape.org/namespaces/inkscape"
   id="svg4"
   version="1.1"
   viewBox="0 0 24 24"
   sodipodi:docname="lc_addelement_AMX_mobile.svg"
   inkscape:version="0.92.4 (unknown)">
  <sodipodi:namedview
     pagecolor="#ffffff"
     bordercolor="#666666"
     borderopacity="1"
     objecttolerance="10"
     gridtolerance="10"
     guidetolerance="10"
     inkscape:pageopacity="0"
     inkscape:pageshadow="2"
     inkscape:window-width="1920"
     inkscape:window-height="1017"
     id="namedview6"
     showgrid="false"
     inkscape:snap-bbox="true"
     inkscape:snap-nodes="false"
     inkscape:bbox-paths="true"
     inkscape:bbox-nodes="true"
     inkscape:snap-bbox-edge-midpoints="true"
     inkscape:zoom="13.906433"
     inkscape:cx="2.151365"
     inkscape:cy="11.383869"
     inkscape:window-x="0"
     inkscape:window-y="30"
     inkscape:window-maximized="1"
     inkscape:current-layer="svg4" />
  <metadata
     id="metadata10">
    <rdf:RDF>
      <cc:Work
         rdf:about="">
        <dc:format>image/svg+xml</dc:format>
        <dc:type
           rdf:resource="http://purl.org/dc/dcmitype/StillImage" />
        <dc:title />
      </cc:Work>
    </rdf:RDF>
  </metadata>
  <defs
     id="defs8" />
  <g
     id="g878"
     transform="matrix(0.85826837,0,0,0.85826837,2.3943405,1.4015591)"
     style="stroke-width:1.16513681">
    <path
       inkscape:connector-curvature="0"
       id="path1595"
       d="m 15.512612,0.6972654 c -0.3189,0 -0.64985,0.0486749 -0.96875,0.1835937 l -3.111329,1.2871094 a 8.5630703,8.5630703 0 0 1 2.986329,6.4921875 8.5630703,8.5630703 0 0 1 -6.4511725,8.292969 l 2.2949225,5.539062 c 0.380226,0.932169 1.287439,1.495547 2.24414,1.507813 0.3189,0 0.638679,-0.06094 0.945313,-0.183594 l 9.027343,-3.740234 c 1.251069,-0.515145 1.851085,-1.950649 1.335938,-3.189453 L 17.733315,2.2050779 C 17.353088,1.285174 16.457046,0.7217962 15.512612,0.6972654 Z M -0.04207611,14.855469 -1.4385605,18.224609 c -0.5028808,1.251069 0.099087,2.686026 1.33789069,3.201172 L 1.5419083,22.111328 V 16.046875 A 8.5630703,8.5630703 0 0 1 -0.04207611,14.855469 Z M 4.006752,17.015625 v 4.53125 C 4.006752,22.896067 5.1106846,24 6.459877,24 h 1.7792969 l -2.8125,-6.796875 a 8.5630703,8.5630703 0 0 1 -1.4199219,-0.1875 z"
       style="fill:#555555;fill-opacity:1;stroke-width:1.16513669" />
    <path
       inkscape:connector-curvature="0"
       d="M 11.355452,9.4466509 H 6.641177 V 14.16095 H 5.0697281 V 9.4466509 H 0.35545339 V 7.875226 H 5.0697281 V 3.1609393 H 6.641177 V 7.875226 h 4.714275 z"
       id="path1603"
       style="fill:#555555;fill-opacity:1;stroke-width:1.16513681" />
  </g>
</svg>
